X: 1
T: Duke Of Gordon
M: 4/4
L: 1/8
R: strathspey
K: Dmaj
F>E|:D<A, B,>A, D>B, A,>F|G<E F>D B,2 F>E|D<A, B,>A, D>B, A,>B|1A>F (3EFE D2 F>E:|2A>F (3EFE D2 B>c||
|d<A B>F A>F D>F|G<E F>D B,2 B>c|d<A B>F A>F D>F|G<E B>c d2 B>c|
d<A B>F A>F D>F|G<E F>D B,2 F>E||D<A, B,>A, D>B, A,>B|A>F (3EFE D2|
